X:26
T:Nong Tong Paw. RHu.026
S:R.Hughes MS,1823,Whitchurch,Shrops.
A:Whitchurch, Shropshire
Z:Neil Brookes 2006
M:6/8
L:1/8
Q:3/8=120
R:Jig
K:C
g|e2ee2d|c2cc2B|ABcd2c|BABG2g|!
e2ee2d|c2cc2B|ABc dB2|c2c”d.cr in MS”c2::!
f|e2ge2g|fefd2f|e2ge2g|fefd2g|!
e2ee2d|c2cc2B|ABcd2B|c2c”d.cr in MS”c2:|

